svg/UnitedNationsOCHA-Humanitarian/food_NFI_detergent_icon_box.svg

<svg xmlns="http://www.w3.org/2000/svg" viewBox="0 0 32 32" enable-background="new 0 0 32 32"><path fill="#407cca" d="m20.383 13.823l.578 4.757c-.775 1.59-1.74.047-1.74.047l-1.25-4.317c-.028-2.058 1.087-1.984 1.784-1.475.484.359.628.988.628.988m11.617-7.423v19.2c0 3.521-2.88 6.4-6.4 6.4h-19.2c-3.52 0-6.4-2.88-6.4-6.4v-19.2c0-3.52 2.88-6.4 6.4-6.4h19.2c3.52 0 6.4 2.88 6.4 6.4m-20.586 2.16h6.572v-1.104h-.641v-3.05c.0001-.226-1.184-.406-2.647-.406-1.462 0-2.65.18-2.65.406v3.05h-.634v1.104m11.784 9.614l-1.925-6.624-3.182-2.222h-6.728l-2.35 2.776-.211 15.896h14.313l.083-9.826"/></svg>

<?xml version="1.0" encoding="utf-8"?>
<!-- Generator: Adobe Illustrator 16.0.3, SVG Export Plug-In . SVG Version: 6.00 Build 0)  -->
<!DOCTYPE svg PUBLIC "-//W3C//DTD SVG 1.1//EN" "http://www.w3.org/Graphics/SVG/1.1/DTD/svg11.dtd">
<svg version="1.1" id="Layer_1" xmlns="http://www.w3.org/2000/svg" xmlns:xlink="http://www.w3.org/1999/xlink" x="0px" y="0px"
	 width="32px" height="32px" viewBox="0 0 32 32" enable-background="new 0 0 32 32" xml:space="preserve">
<path fill="#407CCA" d="M20.383,13.823l0.578,4.757c-0.775,1.59-1.74,0.047-1.74,0.047l-1.25-4.317
	c-0.028-2.058,1.087-1.984,1.784-1.475C20.239,13.194,20.383,13.823,20.383,13.823z M32,6.4v19.2c0,3.521-2.88,6.4-6.4,6.4H6.4
	C2.88,32,0,29.12,0,25.6V6.4C0,2.88,2.88,0,6.4,0h19.2C29.12,0,32,2.88,32,6.4z M11.414,8.56h6.572V7.456h-0.641v-3.05
	C17.346,4.18,16.161,4,14.698,4c-1.462,0-2.65,0.18-2.65,0.406v3.05h-0.634V8.56z M23.198,18.174l-1.925-6.624l-3.182-2.222h-6.728
	l-2.35,2.776L8.802,28h14.313L23.198,18.174z"/>
</svg>
